lib/svgs/info.svg

<?xml version="1.0" encoding="UTF-8" standalone="no"?>
<svg width="20px" height="20px" viewBox="0 0 20 20" version="1.1" xmlns="http://www.w3.org/2000/svg" xmlns:xlink="http://www.w3.org/1999/xlink">
    <defs></defs>
    <g id="Icons" stroke="none" stroke-width="1" fill="none" fill-rule="evenodd">
        <g id="Web" transform="translate(-289.000000, -2148.000000)" fill="#000000">
            <g id="tip/info" transform="translate(289.000000, 2148.000000)">
                <path d="M10,18 C14.418,18 18,14.418 18,10 C18,5.581 14.418,2 10,2 C5.582,2 2,5.581 2,10 C2,14.418 5.582,18 10,18 L10,18 Z M9.99999695,3.19995117 C13.7499969,3.19995117 16.7999969,6.24995117 16.7999969,9.99995117 C16.7999969,13.7499512 13.7499969,16.7999512 9.99999695,16.7999512 C6.24999695,16.7999512 3.19999695,13.7499512 3.19999695,9.99995117 C3.19999695,6.24995117 6.24999695,3.19995117 9.99999695,3.19995117 L9.99999695,3.19995117 Z M10,5.656 C10.442,5.656 10.8,6.014 10.8,6.456 C10.8,6.898 10.442,7.256 10,7.256 C9.558,7.256 9.2,6.898 9.2,6.456 C9.2,6.014 9.558,5.656 10,5.656 L10,5.656 Z M10.599,13.743 C10.599,14.075 10.331,14.343 9.999,14.343 C9.668,14.343 9.399,14.075 9.399,13.743 L9.399,8.943 C9.399,8.612 9.668,8.343 9.999,8.343 C10.331,8.343 10.599,8.612 10.599,8.943 L10.599,13.743 L10.599,13.743 Z" id="Shape"></path>
            </g>
        </g>
    </g>
</svg>

<svg xmlns="http://www.w3.org/2000/svg" viewBox="0 0 20 20">
    <path fill="#000" fill-rule="evenodd" d="M10 18a8 8 0 1 0 0-16 8 8 0 0 0 0 16zm0-14.8c3.75 0 6.8 3.05 6.8 6.8s-3.05 6.8-6.8 6.8-6.8-3.05-6.8-6.8S6.25 3.2 10 3.2zm0 2.456a.8.8 0 1 1 0 1.6.8.8 0 0 1 0-1.6zm.599 8.087a.6.6 0 1 1-1.2 0v-4.8a.6.6 0 0 1 1.2 0v4.8z"/>
</svg>
